seven-segment/glow-green.svg

<?xml version="1.0" encoding="UTF-8" standalone="no"?>
<!-- Created with Inkscape (http://www.inkscape.org/) -->

<svg
   xmlns:dc="http://purl.org/dc/elements/1.1/"
   xmlns:cc="http://creativecommons.org/ns#"
   xmlns:rdf="http://www.w3.org/1999/02/22-rdf-syntax-ns#"
   xmlns:svg="http://www.w3.org/2000/svg"
   xmlns="http://www.w3.org/2000/svg"
   xmlns:sodipodi="http://sodipodi.sourceforge.net/DTD/sodipodi-0.dtd"
   xmlns:inkscape="http://www.inkscape.org/namespaces/inkscape"
   width="100"
   height="160.00003"
   id="svg2"
   version="1.1"
   inkscape:version="0.47pre4 r22446"
   sodipodi:docname="glow-green.svg"
   sodipodi:version="0.32"
   inkscape:output_extension="org.inkscape.output.svg.inkscape">
  <defs
     id="defs4">
    <inkscape:perspective
       sodipodi:type="inkscape:persp3d"
       inkscape:vp_x="0 : 526.18109 : 1"
       inkscape:vp_y="0 : 1000 : 0"
       inkscape:vp_z="744.09448 : 526.18109 : 1"
       inkscape:persp3d-origin="372.04724 : 350.78739 : 1"
       id="perspective10" />
    <inkscape:perspective
       id="perspective3623"
       inkscape:persp3d-origin="0.5 : 0.33333333 : 1"
       inkscape:vp_z="1 : 0.5 : 1"
       inkscape:vp_y="0 : 1000 : 0"
       inkscape:vp_x="0 : 0.5 : 1"
       sodipodi:type="inkscape:persp3d" />
    <filter
       inkscape:collect="always"
       id="filter3274"
       x="-0.050744307"
       width="1.1014886"
       y="-0.24373125"
       height="1.4874625">
      <feGaussianBlur
         inkscape:collect="always"
         stdDeviation="2.0310938"
         id="feGaussianBlur3276" />
    </filter>
    <filter
       inkscape:collect="always"
       id="filter3278"
       x="-0.17626875"
       width="1.3525375"
       y="-0.05513783"
       height="1.1102757">
      <feGaussianBlur
         inkscape:collect="always"
         stdDeviation="1.4689063"
         id="feGaussianBlur3280" />
    </filter>
    <filter
       inkscape:collect="always"
       id="filter3282"
       x="-0.1960875"
       width="1.392175"
       y="-0.053448041"
       height="1.1068961">
      <feGaussianBlur
         inkscape:collect="always"
         stdDeviation="1.6340625"
         id="feGaussianBlur3284" />
    </filter>
    <filter
       inkscape:collect="always"
       id="filter3286"
       x="-0.053317895"
       width="1.1066358"
       y="-0.19785938"
       height="1.3957187">
      <feGaussianBlur
         inkscape:collect="always"
         stdDeviation="1.6488281"
         id="feGaussianBlur3288" />
    </filter>
    <filter
       inkscape:collect="always"
       id="filter3290"
       x="-0.19575944"
       width="1.3915189"
       y="-0.053472466"
       height="1.1069449">
      <feGaussianBlur
         inkscape:collect="always"
         stdDeviation="1.6313287"
         id="feGaussianBlur3292" />
    </filter>
    <filter
       inkscape:collect="always"
       id="filter3294"
       x="-0.050727273"
       width="1.1014545"
       y="-0.244125"
       height="1.48825">
      <feGaussianBlur
         inkscape:collect="always"
         stdDeviation="2.034375"
         id="feGaussianBlur3296" />
    </filter>
    <filter
       inkscape:collect="always"
       id="filter3298"
       x="-0.17580944"
       width="1.3516189"
       y="-0.055182927"
       height="1.1103659">
      <feGaussianBlur
         inkscape:collect="always"
         stdDeviation="1.4650786"
         id="feGaussianBlur3300" />
    </filter>
  </defs>
  <sodipodi:namedview
     id="base"
     pagecolor="#ffffff"
     bordercolor="#666666"
     borderopacity="1.0"
     inkscape:pageopacity="0.0"
     inkscape:pageshadow="2"
     inkscape:zoom="1.6042483"
     inkscape:cx="121.32738"
     inkscape:cy="54.500277"
     inkscape:document-units="px"
     inkscape:current-layer="layer1"
     showgrid="true"
     gridtolerance="10"
     showguides="true"
     inkscape:guide-bbox="true"
     showborder="false"
     inkscape:window-width="1272"
     inkscape:window-height="944"
     inkscape:window-x="150"
     inkscape:window-y="34"
     inkscape:window-maximized="0">
    <inkscape:grid
       type="xygrid"
       id="grid2816"
       empspacing="10"
       visible="true"
       enabled="false"
       snapvisiblegridlinesonly="true" />
  </sodipodi:namedview>
  <metadata
     id="metadata7">
    <rdf:RDF>
      <cc:Work
         rdf:about="">
        <dc:format>image/svg+xml</dc:format>
        <dc:type
           rdf:resource="http://purl.org/dc/dcmitype/StillImage" />
        <dc:title />
      </cc:Work>
    </rdf:RDF>
  </metadata>
  <g
     inkscape:label="Layer 1"
     inkscape:groupmode="layer"
     id="layer1"
     transform="translate(0,-892.36216)">
    <g
       id="g3494"
       transform="translate(0.48037491,-0.00394708)">
      <path
         id="tc2"
         d="M 7.03125,892.36217 C 3.14439,892.36217 0,895.68494 0,899.83092 l 0,1 20,11.53125 56.8125,0 19.25,-19.21875 c -0.93514,-0.4866 -1.98028,-0.78125 -3.09375,-0.78125 l -85.9375,0 0,0 z"
         style="fill:#00ef00;fill-opacity:0.89473685;stroke:none;filter:url(#filter3274)"
         inkscape:label="#path3746" />
      <path
         id="tr2"
         d="m 99.03125,896.04967 -19.03125,19 0,44.25 10.125,10.125 9.875,-9.875 0,-59.71875 c 0,-1.38713 -0.35475,-2.67203 -0.96875,-3.78125 z"
         style="fill:#00ef00;fill-opacity:0.89473685;stroke:none;filter:url(#filter3282)"
         inkscape:label="#path3748" />
      <path
         id="tl2"
         d="M 0,905.61217 0,959.51842 10.03125,969.54967 20,959.58092 20,917.14342 0,905.61217 z"
         style="fill:#00ef00;fill-opacity:0.89473685;stroke:none;filter:url(#filter3278)"
         inkscape:label="#path3750" />
      <path
         id="cc2"
         d="m 23.09375,962.36217 -10.125,10.09375 9.90625,9.90625 54.28125,0 10.03125,-10.03125 -10,-9.96875 -54.09375,0 0,0 z"
         style="fill:#00ef00;fill-opacity:0.89473685;stroke:none;filter:url(#filter3286)"
         inkscape:label="#path3752" />
      <path
         id="br2"
         d="m 90.125,975.26842 -10.125,10.125 0,43.96878 19.125,19.125 c 0.55289,-1.0674 0.875,-2.2827 0.875,-3.5938 l 0,-59.74998 -9.875,-9.875 0,0 z"
         style="fill:#00ef00;fill-opacity:0.89473685;stroke:none;filter:url(#filter3290)"
         inkscape:label="#path3754" />
      <path
         id="bl2"
         d="M 10.03125,975.39342 0,985.42467 l 0,53.68753 20,-11.5625 0,-42.18753 -9.96875,-9.96875 0,0 z"
         style="fill:#00ef00;fill-opacity:0.89473685;stroke:none;filter:url(#filter3298)"
         inkscape:label="#path3756" />
      <path
         id="bc2"
         d="m 20,1032.3622 -20,11.5312 0,1 c 0,4.146 3.14439,7.4688 7.03125,7.4688 l 85.9375,0 c 1.18935,0 2.29975,-0.3244 3.28125,-0.875 l -19.125,-19.125 -57.125,0 0,0 z"
         style="fill:#00ef00;fill-opacity:0.89473685;stroke:none;filter:url(#filter3294)"
         inkscape:label="#path3758" />
    </g>
    <g
       id="g4716"
       transform="translate(145.23937,-1.4741211e-5)">
      <path
         id="path3730"
         d="m -138.20812,892.36218 c -3.88686,0 -7.03125,3.32277 -7.03125,7.46875 l 0,1 20,11.53125 56.8125,0 19.25,-19.21875 c -0.93514,-0.4866 -1.98028,-0.78125 -3.09375,-0.78125 l -85.9375,0 0,0 z"
         style="opacity:0.5;fill:#dcdcdc;fill-opacity:1;stroke:none" />
      <path
         id="path3728"
         d="m -46.20812,896.04968 -19.03125,19 0,44.25 10.125,10.125 9.875,-9.875 0,-59.71875 c 0,-1.38713 -0.35475,-2.67203 -0.96875,-3.78125 z"
         style="opacity:0.5;fill:#dcdcdc;fill-opacity:1;stroke:none" />
      <path
         id="path3726"
         d="m -145.23937,905.61218 0,53.90625 10.03125,10.03125 9.96875,-9.96875 0,-42.4375 -20,-11.53125 z"
         style="opacity:0.5;fill:#dcdcdc;fill-opacity:1;stroke:none" />
      <path
         id="path3724"
         d="m -122.14562,962.36218 -10.125,10.09375 9.90625,9.90625 54.28125,0 10.03125,-10.03125 -10,-9.96875 -54.09375,0 0,0 z"
         style="opacity:0.5;fill:#dcdcdc;fill-opacity:1;stroke:none" />
      <path
         id="path3718"
         d="m -55.11437,975.26843 -10.125,10.125 0,43.96877 19.125,19.125 c 0.55289,-1.0674 0.875,-2.2827 0.875,-3.5938 l 0,-59.74998 -9.875,-9.875 0,10e-6 z"
         style="opacity:0.5;fill:#dcdcdc;fill-opacity:1;stroke:none" />
      <path
         id="path3716"
         d="m -135.20812,975.39343 -10.03125,10.03125 0,53.68752 20,-11.5625 0,-42.18752 -9.96875,-9.96875 0,0 z"
         style="opacity:0.5;fill:#dcdcdc;fill-opacity:1;stroke:none" />
      <path
         id="rect2818"
         d="m -125.23937,1032.3622 -20,11.5312 0,1 c 0,4.146 3.14439,7.4688 7.03125,7.4688 l 85.9375,0 c 1.18935,0 2.29975,-0.3244 3.28125,-0.875 l -19.125,-19.125 -57.125,0 0,0 z"
         style="opacity:0.5;fill:#dcdcdc;fill-opacity:1;stroke:none" />
    </g>
    <g
       id="g3485"
       transform="translate(114.60057,1.7630853)">
      <path
         inkscape:label="#path3746"
         style="fill:#00ef00;fill-opacity:0.89473685;stroke:none"
         d="m -107.56932,890.59908 c -3.88686,0 -7.03125,3.32277 -7.03125,7.46875 l 0,1 20,11.53125 56.8125,0 19.25,-19.21875 c -0.93514,-0.4866 -1.98028,-0.78125 -3.09375,-0.78125 l -85.9375,0 0,0 z"
         id="tc" />
      <path
         inkscape:label="#path3748"
         style="fill:#00ef00;fill-opacity:0.89473685;stroke:none"
         d="m -15.56932,894.28658 -19.03125,19 0,44.25 10.125,10.125 9.875,-9.875 0,-59.71875 c 0,-1.38713 -0.35475,-2.67203 -0.96875,-3.78125 z"
         id="tr" />
      <path
         inkscape:label="#path3750"
         style="fill:#00ef00;fill-opacity:0.89473685;stroke:none"
         d="m -114.60057,903.84908 0,53.90625 10.03125,10.03125 9.96875,-9.96875 0,-42.4375 -20,-11.53125 z"
         id="tl" />
      <path
         inkscape:label="#path3752"
         style="fill:#00ef00;fill-opacity:0.89473685;stroke:none"
         d="m -91.50682,960.59908 -10.125,10.09375 9.90625,9.90625 54.28125,0 10.03125,-10.03125 -10,-9.96875 -54.09375,0 0,0 z"
         id="cc" />
      <path
         inkscape:label="#path3754"
         style="fill:#00ef00;fill-opacity:0.89473685;stroke:none"
         d="m -24.47557,973.50533 -10.125,10.125 0,43.96877 19.125,19.125 c 0.55289,-1.0674 0.875,-2.2827 0.875,-3.5938 l 0,-59.74997 -9.875,-9.875 0,0 z"
         id="br" />
      <path
         inkscape:label="#path3756"
         style="fill:#00ef00;fill-opacity:0.89473685;stroke:none"
         d="m -104.56932,973.63033 -10.03125,10.03125 0,53.68752 20,-11.5625 0,-42.18752 -9.96875,-9.96875 0,0 z"
         id="bl" />
      <path
         inkscape:label="#path3758"
         style="fill:#00ef00;fill-opacity:0.89473685;stroke:none"
         d="m -94.60057,1030.5991 -20,11.5312 0,1 c 0,4.146 3.14439,7.4688 7.03125,7.4688 l 85.9375,0 c 1.18935,0 2.29975,-0.3244 3.28125,-0.875 l -19.125,-19.125 -57.125,0 0,0 z"
         id="bc" />
    </g>
  </g>
</svg>

<?xml version="1.0" encoding="UTF-8" standalone="no"?>
<!-- Created with Inkscape (http://www.inkscape.org/) -->
<svg
   xmlns:dc="http://purl.org/dc/elements/1.1/"
   xmlns:cc="http://creativecommons.org/ns#"
   xmlns:rdf="http://www.w3.org/1999/02/22-rdf-syntax-ns#"
   xmlns:svg="http://www.w3.org/2000/svg"
   xmlns="http://www.w3.org/2000/svg"
   xmlns:sodipodi="http://sodipodi.sourceforge.net/DTD/sodipodi-0.dtd"
   xmlns:inkscape="http://www.inkscape.org/namespaces/inkscape"
   width="100"
   height="160.00003"
   id="svg2"
   version="1.1"
   inkscape:version="0.46"
   sodipodi:docname="glow-green.svg"
   sodipodi:version="0.32"
   inkscape:output_extension="org.inkscape.output.svg.inkscape">
  <defs
     id="defs4">
    <inkscape:perspective
       sodipodi:type="inkscape:persp3d"
       inkscape:vp_x="0 : 526.18109 : 1"
       inkscape:vp_y="0 : 1000 : 0"
       inkscape:vp_z="744.09448 : 526.18109 : 1"
       inkscape:persp3d-origin="372.04724 : 350.78739 : 1"
       id="perspective10" />
    <inkscape:perspective
       id="perspective3623"
       inkscape:persp3d-origin="0.5 : 0.33333333 : 1"
       inkscape:vp_z="1 : 0.5 : 1"
       inkscape:vp_y="0 : 1000 : 0"
       inkscape:vp_x="0 : 0.5 : 1"
       sodipodi:type="inkscape:persp3d" />
    <filter
       inkscape:collect="always"
       id="filter3863"
       x="-0.040519483"
       width="1.081039"
       y="-0.19500001"
       height="1.39">
      <feGaussianBlur
         inkscape:collect="always"
         stdDeviation="1.6250001"
         id="feGaussianBlur3865" />
    </filter>
    <filter
       inkscape:collect="always"
       id="filter3867"
       x="-0.19500001"
       width="1.39"
       y="-0.061206449"
       height="1.1224129">
      <feGaussianBlur
         inkscape:collect="always"
         stdDeviation="1.6250001"
         id="feGaussianBlur3869" />
    </filter>
    <filter
       inkscape:collect="always"
       id="filter3871"
       x="-0.19500001"
       width="1.39"
       y="-0.053265026"
       height="1.1065301">
      <feGaussianBlur
         inkscape:collect="always"
         stdDeviation="1.6250001"
         id="feGaussianBlur3873" />
    </filter>
    <filter
       inkscape:collect="always"
       id="filter3875"
       x="-0.052547372"
       width="1.1050947"
       y="-0.19500001"
       height="1.39">
      <feGaussianBlur
         inkscape:collect="always"
         stdDeviation="1.6250001"
         id="feGaussianBlur3877" />
    </filter>
    <filter
       inkscape:collect="always"
       id="filter3879"
       x="-0.19500001"
       width="1.39"
       y="-0.060997071"
       height="1.1219941">
      <feGaussianBlur
         inkscape:collect="always"
         stdDeviation="1.6250001"
         id="feGaussianBlur3881" />
    </filter>
    <filter
       inkscape:collect="always"
       id="filter3883"
       x="-0.19500001"
       width="1.39"
       y="-0.053151622"
       height="1.1063032">
      <feGaussianBlur
         inkscape:collect="always"
         stdDeviation="1.6250001"
         id="feGaussianBlur3885" />
    </filter>
    <filter
       inkscape:collect="always"
       id="filter3887"
       x="-0.040598571"
       width="1.0811971"
       y="-0.19500001"
       height="1.39">
      <feGaussianBlur
         inkscape:collect="always"
         stdDeviation="1.6250001"
         id="feGaussianBlur3889" />
    </filter>
    <filter
       inkscape:collect="always"
       id="filter3274"
       x="-0.050744307"
       width="1.1014886"
       y="-0.24373125"
       height="1.4874625">
      <feGaussianBlur
         inkscape:collect="always"
         stdDeviation="2.0310938"
         id="feGaussianBlur3276" />
    </filter>
    <filter
       inkscape:collect="always"
       id="filter3278"
       x="-0.17626875"
       width="1.3525375"
       y="-0.05513783"
       height="1.1102757">
      <feGaussianBlur
         inkscape:collect="always"
         stdDeviation="1.4689063"
         id="feGaussianBlur3280" />
    </filter>
    <filter
       inkscape:collect="always"
       id="filter3282"
       x="-0.1960875"
       width="1.392175"
       y="-0.053448041"
       height="1.1068961">
      <feGaussianBlur
         inkscape:collect="always"
         stdDeviation="1.6340625"
         id="feGaussianBlur3284" />
    </filter>
    <filter
       inkscape:collect="always"
       id="filter3286"
       x="-0.053317895"
       width="1.1066358"
       y="-0.19785938"
       height="1.3957187">
      <feGaussianBlur
         inkscape:collect="always"
         stdDeviation="1.6488281"
         id="feGaussianBlur3288" />
    </filter>
    <filter
       inkscape:collect="always"
       id="filter3290"
       x="-0.19575944"
       width="1.3915189"
       y="-0.053472466"
       height="1.1069449">
      <feGaussianBlur
         inkscape:collect="always"
         stdDeviation="1.6313287"
         id="feGaussianBlur3292" />
    </filter>
    <filter
       inkscape:collect="always"
       id="filter3294"
       x="-0.050727273"
       width="1.1014545"
       y="-0.244125"
       height="1.48825">
      <feGaussianBlur
         inkscape:collect="always"
         stdDeviation="2.034375"
         id="feGaussianBlur3296" />
    </filter>
    <filter
       inkscape:collect="always"
       id="filter3298"
       x="-0.17580944"
       width="1.3516189"
       y="-0.055182927"
       height="1.1103659">
      <feGaussianBlur
         inkscape:collect="always"
         stdDeviation="1.4650786"
         id="feGaussianBlur3300" />
    </filter>
  </defs>
  <sodipodi:namedview
     id="base"
     pagecolor="#ffffff"
     bordercolor="#666666"
     borderopacity="1.0"
     inkscape:pageopacity="0.0"
     inkscape:pageshadow="2"
     inkscape:zoom="3.2084965"
     inkscape:cx="42.325152"
     inkscape:cy="70.719868"
     inkscape:document-units="px"
     inkscape:current-layer="layer1"
     showgrid="true"
     gridtolerance="10"
     showguides="true"
     inkscape:guide-bbox="true"
     showborder="false"
     inkscape:window-width="1695"
     inkscape:window-height="944"
     inkscape:window-x="1949"
     inkscape:window-y="132"
     inkscape:window-maximized="0">
    <inkscape:grid
       type="xygrid"
       id="grid2816"
       empspacing="10"
       visible="true"
       enabled="false"
       snapvisiblegridlinesonly="true" />
  </sodipodi:namedview>
  <metadata
     id="metadata7">
    <rdf:RDF>
      <cc:Work
         rdf:about="">
        <dc:format>image/svg+xml</dc:format>
        <dc:type
           rdf:resource="http://purl.org/dc/dcmitype/StillImage" />
        <dc:title />
      </cc:Work>
    </rdf:RDF>
  </metadata>
  <g
     inkscape:label="Layer 1"
     inkscape:groupmode="layer"
     id="layer1"
     transform="translate(0,-892.36216)">
    <g
       id="g3494"
       transform="translate(0,-9.7412108e-6)">
      <path
         id="tc2"
         d="M 7.03125,892.36217 C 3.14439,892.36217 0,895.68494 0,899.83092 L 0,900.83092 L 20,912.36217 L 76.8125,912.36217 L 96.0625,893.14342 C 95.12736,892.65682 94.08222,892.36217 92.96875,892.36217 L 7.03125,892.36217 L 7.03125,892.36217 z"
         style="fill:#00ef00;fill-opacity:0.89473685;stroke:none;filter:url(#filter3274)"
         inkscape:label="#path3746" />
      <path
         id="tr2"
         d="M 99.03125,896.04967 L 80,915.04967 L 80,959.29967 L 90.125,969.42467 L 100,959.54967 L 100,899.83092 C 100,898.44379 99.64525,897.15889 99.03125,896.04967 z"
         style="fill:#00ef00;fill-opacity:0.89473685;stroke:none;filter:url(#filter3282)"
         inkscape:label="#path3748" />
      <path
         id="tl2"
         d="M 0,905.61217 L 0,959.51842 L 10.03125,969.54967 L 20,959.58092 L 20,917.14342 L 0,905.61217 z"
         style="fill:#00ef00;fill-opacity:0.89473685;stroke:none;filter:url(#filter3278)"
         inkscape:label="#path3750" />
      <path
         id="cc2"
         d="M 23.09375,962.36217 L 12.96875,972.45592 L 22.875,982.36217 L 77.15625,982.36217 L 87.1875,972.33092 L 77.1875,962.36217 L 23.09375,962.36217 L 23.09375,962.36217 z"
         style="fill:#00ef00;fill-opacity:0.89473685;stroke:none;filter:url(#filter3286)"
         inkscape:label="#path3752" />
      <path
         id="br2"
         d="M 90.125,975.26842 L 80,985.39342 L 80,1029.3622 L 99.125,1048.4872 C 99.67789,1047.4198 100,1046.2045 100,1044.8934 L 100,985.14342 L 90.125,975.26842 L 90.125,975.26842 z"
         style="fill:#00ef00;fill-opacity:0.89473685;stroke:none;filter:url(#filter3290)"
         inkscape:label="#path3754" />
      <path
         id="bl2"
         d="M 10.03125,975.39342 L 0,985.42467 L 0,1039.1122 L 20,1027.5497 L 20,985.36217 L 10.03125,975.39342 L 10.03125,975.39342 z"
         style="fill:#00ef00;fill-opacity:0.89473685;stroke:none;filter:url(#filter3298)"
         inkscape:label="#path3756" />
      <path
         id="bc2"
         d="M 20,1032.3622 L 0,1043.8934 L 0,1044.8934 C 0,1049.0394 3.14439,1052.3622 7.03125,1052.3622 L 92.96875,1052.3622 C 94.1581,1052.3622 95.2685,1052.0378 96.25,1051.4872 L 77.125,1032.3622 L 20,1032.3622 L 20,1032.3622 z"
         style="fill:#00ef00;fill-opacity:0.89473685;stroke:none;filter:url(#filter3294)"
         inkscape:label="#path3758" />
    </g>
    <g
       id="g3510"
       transform="translate(-104.68321,0.6611753)">
      <path
         id="path3730"
         d="M 111.71446,891.701 C 107.8276,891.701 104.68321,895.02377 104.68321,899.16975 L 104.68321,900.16975 L 124.68321,911.701 L 181.49571,911.701 L 200.74571,892.48225 C 199.81057,891.99565 198.76543,891.701 197.65196,891.701 L 111.71446,891.701 L 111.71446,891.701 z"
         style="opacity:0.2;fill:#dcdcdc;fill-opacity:0.50196078;stroke:none" />
      <path
         id="path3728"
         d="M 203.71446,895.3885 L 184.68321,914.3885 L 184.68321,958.6385 L 194.80821,968.7635 L 204.68321,958.8885 L 204.68321,899.16975 C 204.68321,897.78262 204.32846,896.49772 203.71446,895.3885 z"
         style="opacity:0.2;fill:#dcdcdc;fill-opacity:0.50196078;stroke:none" />
      <path
         id="path3726"
         d="M 104.68321,904.951 L 104.68321,958.85725 L 114.71446,968.8885 L 124.68321,958.91975 L 124.68321,916.48225 L 104.68321,904.951 z"
         style="opacity:0.2;fill:#dcdcdc;fill-opacity:0.50196078;stroke:none" />
      <path
         id="path3724"
         d="M 127.77696,961.701 L 117.65196,971.79475 L 127.55821,981.701 L 181.83946,981.701 L 191.87071,971.66975 L 181.87071,961.701 L 127.77696,961.701 L 127.77696,961.701 z"
         style="opacity:0.2;fill:#dcdcdc;fill-opacity:0.50196078;stroke:none" />
      <path
         id="path3718"
         d="M 194.80821,974.60725 L 184.68321,984.73225 L 184.68321,1028.701 L 203.80821,1047.826 C 204.3611,1046.7586 204.68321,1045.5433 204.68321,1044.2322 L 204.68321,984.48224 L 194.80821,974.60724 L 194.80821,974.60725 z"
         style="opacity:0.2;fill:#dcdcdc;fill-opacity:0.50196078;stroke:none" />
      <path
         id="path3716"
         d="M 114.71446,974.73225 L 104.68321,984.7635 L 104.68321,1038.451 L 124.68321,1026.8885 L 124.68321,984.701 L 114.71446,974.73225 L 114.71446,974.73225 z"
         style="opacity:0.2;fill:#dcdcdc;fill-opacity:0.50196078;stroke:none" />
      <path
         id="rect2818"
         d="M 124.68321,1031.701 L 104.68321,1043.2322 L 104.68321,1044.2322 C 104.68321,1048.3782 107.8276,1051.701 111.71446,1051.701 L 197.65196,1051.701 C 198.84131,1051.701 199.95171,1051.3766 200.93321,1050.826 L 181.80821,1031.701 L 124.68321,1031.701 L 124.68321,1031.701 z"
         style="opacity:0.2;fill:#dcdcdc;fill-opacity:0.50196078;stroke:none" />
    </g>
    <g
       id="g3485"
       transform="translate(114.60057,1.7630853)">
      <path
         inkscape:label="#path3746"
         style="fill:#00ef00;fill-opacity:0.89473685;stroke:none"
         d="M -107.56932,890.59908 C -111.45618,890.59908 -114.60057,893.92185 -114.60057,898.06783 L -114.60057,899.06783 L -94.60057,910.59908 L -37.78807,910.59908 L -18.53807,891.38033 C -19.47321,890.89373 -20.51835,890.59908 -21.63182,890.59908 L -107.56932,890.59908 L -107.56932,890.59908 z"
         id="tc" />
      <path
         inkscape:label="#path3748"
         style="fill:#00ef00;fill-opacity:0.89473685;stroke:none"
         d="M -15.56932,894.28658 L -34.60057,913.28658 L -34.60057,957.53658 L -24.47557,967.66158 L -14.60057,957.78658 L -14.60057,898.06783 C -14.60057,896.6807 -14.95532,895.3958 -15.56932,894.28658 z"
         id="tr" />
      <path
         inkscape:label="#path3750"
         style="fill:#00ef00;fill-opacity:0.89473685;stroke:none"
         d="M -114.60057,903.84908 L -114.60057,957.75533 L -104.56932,967.78658 L -94.60057,957.81783 L -94.60057,915.38033 L -114.60057,903.84908 z"
         id="tl" />
      <path
         inkscape:label="#path3752"
         style="fill:#00ef00;fill-opacity:0.89473685;stroke:none"
         d="M -91.50682,960.59908 L -101.63182,970.69283 L -91.72557,980.59908 L -37.44432,980.59908 L -27.41307,970.56783 L -37.41307,960.59908 L -91.50682,960.59908 L -91.50682,960.59908 z"
         id="cc" />
      <path
         inkscape:label="#path3754"
         style="fill:#00ef00;fill-opacity:0.89473685;stroke:none"
         d="M -24.47557,973.50533 L -34.60057,983.63033 L -34.60057,1027.5991 L -15.47557,1046.7241 C -14.92268,1045.6567 -14.60057,1044.4414 -14.60057,1043.1303 L -14.60057,983.38033 L -24.47557,973.50533 L -24.47557,973.50533 z"
         id="br" />
      <path
         inkscape:label="#path3756"
         style="fill:#00ef00;fill-opacity:0.89473685;stroke:none"
         d="M -104.56932,973.63033 L -114.60057,983.66158 L -114.60057,1037.3491 L -94.60057,1025.7866 L -94.60057,983.59908 L -104.56932,973.63033 L -104.56932,973.63033 z"
         id="bl" />
      <path
         inkscape:label="#path3758"
         style="fill:#00ef00;fill-opacity:0.89473685;stroke:none"
         d="M -94.60057,1030.5991 L -114.60057,1042.1303 L -114.60057,1043.1303 C -114.60057,1047.2763 -111.45618,1050.5991 -107.56932,1050.5991 L -21.63182,1050.5991 C -20.44247,1050.5991 -19.33207,1050.2747 -18.35057,1049.7241 L -37.47557,1030.5991 L -94.60057,1030.5991 L -94.60057,1030.5991 z"
         id="bc" />
    </g>
  </g>
</svg>
